foodtherapy/img/home/play.svg

<svg width="146" height="144" viewBox="0 0 146 144" fill="none" xmlns="http://www.w3.org/2000/svg">
<mask id="path-1-inside-1_1_146" fill="white">
<path fill-rule="evenodd" clip-rule="evenodd" d="M72.8521 144C113.087 144 145.704 111.765 145.704 72C145.704 32.2355 113.087 0 72.8521 0C32.617 0 0 32.2355 0 72C0 111.765 32.617 144 72.8521 144ZM59.5571 47.6252C58.9397 47.2497 58.1676 47.2365 57.5377 47.5906C56.9077 47.9448 56.5179 48.6113 56.5179 49.334V94.6673C56.5179 95.39 56.9077 96.0565 57.5377 96.4107C58.1676 96.7648 58.9397 96.7516 59.5571 96.3761L96.8264 73.7094C97.4229 73.3466 97.7871 72.6989 97.7871 72.0007C97.7871 71.3024 97.4229 70.6547 96.8264 70.2919L59.5571 47.6252ZM91.9382 72.0007L60.5179 91.1101V52.8912L91.9382 72.0007Z"/>
</mask>
<path fill-rule="evenodd" clip-rule="evenodd" d="M72.8521 144C113.087 144 145.704 111.765 145.704 72C145.704 32.2355 113.087 0 72.8521 0C32.617 0 0 32.2355 0 72C0 111.765 32.617 144 72.8521 144ZM59.5571 47.6252C58.9397 47.2497 58.1676 47.2365 57.5377 47.5906C56.9077 47.9448 56.5179 48.6113 56.5179 49.334V94.6673C56.5179 95.39 56.9077 96.0565 57.5377 96.4107C58.1676 96.7648 58.9397 96.7516 59.5571 96.3761L96.8264 73.7094C97.4229 73.3466 97.7871 72.6989 97.7871 72.0007C97.7871 71.3024 97.4229 70.6547 96.8264 70.2919L59.5571 47.6252ZM91.9382 72.0007L60.5179 91.1101V52.8912L91.9382 72.0007Z" fill="white"/>
<path d="M57.5377 47.5906L55.0873 43.2323L55.0872 43.2323L57.5377 47.5906ZM59.5571 47.6252L62.1553 43.3532L62.1553 43.3532L59.5571 47.6252ZM57.5377 96.4107L55.0872 100.769L55.0873 100.769L57.5377 96.4107ZM59.5571 96.3761L62.1552 100.648L62.1553 100.648L59.5571 96.3761ZM96.8264 73.7094L99.4245 77.9814L99.4245 77.9814L96.8264 73.7094ZM96.8264 70.2919L99.4245 66.0199L99.4245 66.0199L96.8264 70.2919ZM60.5179 91.1101H55.5179V100.003L63.116 95.3821L60.5179 91.1101ZM91.9382 72.0007L94.5364 76.2726L101.56 72.0007L94.5364 67.7287L91.9382 72.0007ZM60.5179 52.8912L63.116 48.6192L55.5179 43.9981V52.8912H60.5179ZM140.704 72C140.704 108.948 110.381 139 72.8521 139V149C115.793 149 150.704 114.581 150.704 72H140.704ZM72.8521 5C110.381 5 140.704 35.0522 140.704 72H150.704C150.704 29.4188 115.793 -5 72.8521 -5V5ZM5 72C5 35.0522 35.3228 5 72.8521 5V-5C29.9112 -5 -5 29.4188 -5 72H5ZM72.8521 139C35.3228 139 5 108.948 5 72H-5C-5 114.581 29.9112 149 72.8521 149V139ZM59.9881 51.949C59.0432 52.4803 57.8852 52.4605 56.959 51.8972L62.1553 43.3532C59.9941 42.0389 57.2921 41.9926 55.0873 43.2323L59.9881 51.949ZM61.5179 49.334C61.5179 50.418 60.933 51.4177 59.9881 51.949L55.0872 43.2323C52.8824 44.4719 51.5179 46.8046 51.5179 49.334H61.5179ZM61.5179 94.6673V49.334H51.5179V94.6673H61.5179ZM59.9882 92.0523C60.933 92.5836 61.5179 93.5833 61.5179 94.6673H51.5179C51.5179 97.1968 52.8824 99.5294 55.0872 100.769L59.9882 92.0523ZM56.959 92.1041C57.8852 91.5409 59.0432 91.521 59.9881 92.0523L55.0873 100.769C57.2921 102.009 59.9941 101.962 62.1552 100.648L56.959 92.1041ZM94.2282 69.4375L56.959 92.1041L62.1553 100.648L99.4245 77.9814L94.2282 69.4375ZM92.7871 72.0007C92.7871 70.9532 93.3334 69.9817 94.2282 69.4375L99.4245 77.9814C101.513 76.7115 102.787 74.4446 102.787 72.0007H92.7871ZM94.2282 74.5638C93.3333 74.0196 92.7871 73.048 92.7871 72.0007H102.787C102.787 69.5568 101.513 67.2898 99.4245 66.0199L94.2282 74.5638ZM56.959 51.8972L94.2282 74.5638L99.4245 66.0199L62.1553 43.3532L56.959 51.8972ZM63.116 95.3821L94.5364 76.2726L89.34 67.7287L57.9197 86.8382L63.116 95.3821ZM55.5179 52.8912V91.1101H65.5179V52.8912H55.5179ZM94.5364 67.7287L63.116 48.6192L57.9197 57.1632L89.34 76.2726L94.5364 67.7287Z" fill="white" mask="url(#path-1-inside-1_1_146)"/>
</svg>

<svg width="146" height="144" fill="none" xmlns="http://www.w3.org/2000/svg"><mask id="a" fill="#fff"><path fill-rule="evenodd" clip-rule="evenodd" d="M72.852 144c40.235 0 72.852-32.235 72.852-72 0-39.764-32.617-72-72.852-72C32.617 0 0 32.236 0 72c0 39.765 32.617 72 72.852 72zM59.557 47.625a2 2 0 00-3.04 1.709v45.333a2 2 0 003.04 1.71l37.27-22.668a2 2 0 000-3.417l-37.27-22.667zm32.381 24.376l-31.42 19.11V52.89L91.938 72z"/></mask><path fill-rule="evenodd" clip-rule="evenodd" d="M72.852 144c40.235 0 72.852-32.235 72.852-72 0-39.764-32.617-72-72.852-72C32.617 0 0 32.236 0 72c0 39.765 32.617 72 72.852 72zM59.557 47.625a2 2 0 00-3.04 1.709v45.333a2 2 0 003.04 1.71l37.27-22.668a2 2 0 000-3.417l-37.27-22.667zm32.381 24.376l-31.42 19.11V52.89L91.938 72z" fill="#fff"/><path d="M57.538 47.59l-2.45-4.358 2.45 4.359zm2.02.035l2.597-4.272-2.598 4.272zm-2.02 48.786l-2.45 4.358 2.45-4.358zm2.02-.035l2.597 4.272-2.598-4.272zM96.825 73.71l2.599 4.272-2.599-4.272zm0-3.417l2.599-4.272-2.599 4.272zM60.518 91.11h-5v8.893l7.598-4.62-2.598-4.273zM91.938 72l2.598 4.273L101.56 72l-7.024-4.272L91.938 72zm-31.42-19.109l2.598-4.272L55.518 44v8.892h5zM140.704 72c0 36.948-30.323 67-67.852 67v10c42.941 0 77.852-34.419 77.852-77h-10zM72.852 5c37.529 0 67.852 30.052 67.852 67h10c0-42.581-34.911-77-77.852-77V5zM5 72C5 35.052 35.323 5 72.852 5V-5C29.912-5-5 29.419-5 72H5zm67.852 67C35.322 139 5 108.948 5 72H-5c0 42.581 34.911 77 77.852 77v-10zM59.988 51.949a3 3 0 01-3.029-.052l5.196-8.544a7 7 0 00-7.068-.12l4.901 8.716zm1.53-2.615a3 3 0 01-1.53 2.615l-4.9-8.717a7 7 0 00-3.57 6.102h10zm0 45.333V49.334h-10v45.333h10zm-1.53-2.615a3 3 0 011.53 2.615h-10a7 7 0 003.57 6.102l4.9-8.717zm-3.029.052a3 3 0 013.03-.052l-4.902 8.717a7 7 0 007.068-.121l-5.196-8.544zm37.27-22.666l-37.27 22.666 5.196 8.544 37.27-22.667-5.197-8.543zM92.786 72a3 3 0 011.441-2.564l5.197 8.544a6.999 6.999 0 003.362-5.98h-10zm1.441 2.563A3 3 0 0192.788 72h9.999a6.999 6.999 0 00-3.363-5.981l-5.196 8.544zM56.96 51.897l37.27 22.667 5.195-8.544-37.269-22.667-5.196 8.544zm6.157 43.485l31.42-19.11-5.196-8.543-31.42 19.11 5.196 8.543zm-7.598-42.49V91.11h10V52.891h-10zm39.018 14.837l-31.42-19.11-5.196 8.544 31.42 19.11 5.196-8.544z" fill="#fff" mask="url(#a)"/></svg>
